X:1
T: Quickstep  Kerr's 1st p.48
C:
R:Jig
Q:180
K:D
M:6/8
L:1/16
gf|e4c2 d2B2G2|A2B2A2 d2c2d2|e4c2 d2B2G2|B6 B2g2f2|
e4c2 d2B2G2|A2B2A2 d2c2d2|e4A2 B2A2G2|A6 A4B2|
G4g2 g2f2g2|e2f2g2 a2e2d2|e4f2 g2f2g2|B6 G4B2|
A4g2 g2f2g2|e2f2g2 a2f2d2|e4A2 B2A2G2|A6 A4B2|
G4g2 g2f2g2|e2f2g2 a2e2d2|e4f2 g2f2g2|B6 G2g2f2|
e4c2 d2B2G2|A2B2A2 d2c2d2|e4A2 B2A2G2|A6 A4||
